X: 6810
T: Charleston, The
R: reel
M: 4/4
K: Amajor
|:c3e cBAB|cABA FADF|EAAG Acfc|ecBA GBed|
c3e cBAB|cABA FADF|EAAG Acfc|1 ecBc A3B:|2 ecBc Aaga||
|:baga fedf|eAce f3g|aee2 faec|dcBA GBed|
c3e cBAB|cABA FADF|EAAG Acfc|1 ecBc Aaga:|2 ecBc A3B||

